Origami/16x16/apps/desktop-environment-kde.svg

<svg width="16" height="16" version="1.1" xmlns="http://www.w3.org/2000/svg">
 <rect transform="matrix(0,-1,-1,0,0,0)" x="-16" y="-16" width="16" height="16" rx=".8" ry=".8" style="fill:#2c9bff"/>
 <path d="m9.0056 1.00002-2.0056 0.3989v8.5128l1.9944-0.3116v-3.6l2.8056 4 2.1886-1.00012-2.9886-3.39988 3.0114-3.6-2.2114-1.00014-2.8056 4.20014v-4.20014z" style="fill:#ffffff"/>
 <path d="m4.28125 4.2011719c-0.0246 3e-3 -0.0517125 0.0087437-0.0703125 0.0273437l-0.8535156 0.8476563c-0.035792 0.0357-0.0399839 0.0896125-0.0136719 0.1328125l0.9082031 1.4882812c-0.213336 0.346448-0.3789944 0.72368-0.4902343 1.125l-1.6738282 0.3457032c-0.05084 0.0104-0.0878906 0.0593281-0.0878906 0.1113281v1.1972656c0 0.0507 0.0385716 0.0937688 0.0878906 0.1054687l1.6230469 0.390625c0.102124 0.4515198 0.2747303 0.8766718 0.5039063 1.2636718l-0.9453126 1.429688c-0.02868 0.0435-0.0233161 0.101771 0.0136719 0.138672l0.8535157 0.847656c0.0359999 0.0357 0.0915656 0.039772 0.1347656 0.013672l1.4765625-0.890625c0.36468 0.217976 0.7624668 0.384786 1.1855469 0.490234l0.3457031 1.646484c0.0108 0.0508 0.0530687 0.087891 0.1054687 0.087891h1.2070313c0.0504 0 0.0934687-0.033131 0.1054687-0.082031l0.4101563-1.658203c0.42644-0.110472 0.8235331-0.288804 1.1894531-0.513672l1.482422 0.964844c0.0438 0.0282 0.101472 0.022628 0.138672-0.013672l0.849609-0.845704c0.036-0.0357 0.043978-0.091863 0.017578-0.134765l-0.580078-0.947266-0.189453 0.058594c-0.0276 0.0084-0.058019-0.003624-0.074219-0.027344 0 0-0.179449-0.244084-0.322265-0.4375-0.059565-0.09064-0.550829-0.687764-0.890625-1.121093a3 3 0 0 1 -2.728516 1.757812 3 3 0 0 1 -3 -3 3 3 0 0 1 1.4003906 -2.5351562v-1.5898438c-0.22315 0.082948-0.3698787 0.1843413-0.5742187 0.3007812l-1.4765625-0.9589843c-0.0219-0.0144-0.0440594-0.018025-0.0683594-0.015625z" style="fill:#ffffff"/>
</svg>

<svg xmlns="http://www.w3.org/2000/svg" width="16" height="16" version="1.1">
 <rect style="fill:#2c9bff" width="16" height="16" x="-16" y="-16" rx=".8" ry=".8" transform="matrix(0,-1,-1,0,0,0)"/>
 <path style="fill:#ffffff" d="M 9.0056,1.00002 7,1.39892 v 8.5128 l 1.9944,-0.3116 v -3.6 l 2.8056,4 L 13.9886,9 11,5.60012 14.0114,2.00012 11.8,0.99998 8.9944,5.20012 V 0.99998 Z"/>
 <path style="fill:#ffffff" d="M 4.28125 4.2011719 C 4.25665 4.2041719 4.2295375 4.2099156 4.2109375 4.2285156 L 3.3574219 5.0761719 C 3.3216299 5.1118719 3.317438 5.1657844 3.34375 5.2089844 L 4.2519531 6.6972656 C 4.0386171 7.0437136 3.8729587 7.4209456 3.7617188 7.8222656 L 2.0878906 8.1679688 C 2.0370506 8.1783688 2 8.2272969 2 8.2792969 L 2 9.4765625 C 2 9.5272625 2.0385716 9.5703313 2.0878906 9.5820312 L 3.7109375 9.9726562 C 3.8130615 10.424176 3.9856678 10.849328 4.2148438 11.236328 L 3.2695312 12.666016 C 3.2408512 12.709516 3.2462151 12.767787 3.2832031 12.804688 L 4.1367188 13.652344 C 4.1727187 13.688044 4.2282844 13.692116 4.2714844 13.666016 L 5.7480469 12.775391 C 6.1127269 12.993367 6.5105137 13.160177 6.9335938 13.265625 L 7.2792969 14.912109 C 7.2900969 14.962909 7.3323656 15 7.3847656 15 L 8.5917969 15 C 8.6421969 15 8.6852656 14.966869 8.6972656 14.917969 L 9.1074219 13.259766 C 9.5338619 13.149294 9.930955 12.970962 10.296875 12.746094 L 11.779297 13.710938 C 11.823097 13.739138 11.880769 13.733566 11.917969 13.697266 L 12.767578 12.851562 C 12.803578 12.815862 12.811556 12.759699 12.785156 12.716797 L 12.205078 11.769531 L 12.015625 11.828125 C 11.988025 11.836525 11.957606 11.824501 11.941406 11.800781 C 11.941406 11.800781 11.761957 11.556697 11.619141 11.363281 C 11.559576 11.272641 11.068312 10.675517 10.728516 10.242188 A 3 3 0 0 1 8 12 A 3 3 0 0 1 5 9 A 3 3 0 0 1 6.4003906 6.4648438 L 6.4003906 4.875 C 6.1772406 4.957948 6.0305119 5.0593413 5.8261719 5.1757812 L 4.3496094 4.2167969 C 4.3277094 4.2023969 4.30555 4.1987719 4.28125 4.2011719 z"/>
</svg>
